X:44
T:La Tarentelle *
R:
C:Burgmüller.
S:
Z: Eric Forgeot - http://anamnese.online.fr
M:6/8
L:1/8
Q:1/4=160
K:F
%%staves (1 2)
V:1
DEF FGA | AGF FED | DEF FGA | AGF FED | D2 z z2 z |
[F2d2] z z2 z | [E2d2] z z2 z | [G2 ^c2] z z2 |: a | agf fed | def fga | bzb d'zd' | a3 a2 a |
agf fed | cde fga | c'zb gzc' | f3 f' z :| |:
V:2
